!!!OTL: DER KNABE ROBERT FEST UND WERT
!!!ARE: Europa, Mitteleuropa, Deutschland
!!!SCT: B0057
!!!YEM: Copyright 1995, estate of Helmut Schaffrath.
**kern
*ICvox
*Ivox
*M4/4
*k[b-]
*F:
{8cc
8a
8g
=1
4f
4f
4g
4g
=2
2a
8r}
{8cc
8ff
8cc
=3
4a
4a
4b-
4b-
=4
2cc
8r}
{8cc
8cc
8cc
=5
4.ee
8cc
4.ee
8cc
=6
2ff
8r}
{8a
8b-
8cc
=7
4dd
4b-
4g
4cc
=8
2f
8r}
==
!!!AGN: Kriegs -, Sieges -, Soldaten - Lied
!!!ONB: ESAC (Essen Associative Code) Database: BOEHME
!!!AMT: simple quadruple
!!!AIN: vox
!!!EED: Helmut Schaffrath
!!!EEV: 1.0
*-
